src/icons/lanaCard.svg

<svg class="icon" fill="none" viewBox="0 0 40 28" xmlns="http://www.w3.org/2000/svg">
  <rect x="1" y="1" width="38" height="26" rx="3" fill="#00A0DF" stroke="#19194B" stroke-width="2"/>
  <circle cx="33" cy="20" r="3" fill="#FAC34B"/>
  <circle cx="29" cy="20" r="3" fill="#EB4B68"/>
  <mask id="a" x="2" y="2" width="15" height="24" mask-type="alpha" maskUnits="userSpaceOnUse">
    <rect transform="rotate(180 17 26)" x="17" y="26" width="15" height="24" fill="#C4C4C4"/>
  </mask>
  <g mask="url(#a)">
    <path d="m-4.8531 17.178c-1.293-0.4271-2.2303-1.6878-2.2303-3.178s0.93729-2.7516 2.2303-3.178c-0.62463-1.2559-0.4332-2.8394 0.57693-3.8935 1.0095-1.054 2.527-1.2538 3.7305-0.60132 0.40869-1.3492 1.6175-2.3272 3.0456-2.3272 1.4281 0 2.6363 0.97802 3.0456 2.3272 1.2036-0.65248 2.7211-0.45273 3.7305 0.60132 1.0102 1.054 1.2016 2.6376 0.57694 3.8935 1.2923 0.4264 2.2302 1.6878 2.2302 3.178s-0.9379 2.7509-2.2302 3.178c0.62462 1.2552 0.43322 2.8387-0.57694 3.8928-1.0095 1.054-2.527 1.2538-3.7305 0.6013-0.40935 1.3499-1.6175 2.3279-3.0456 2.3279s-2.6369-0.978-3.0456-2.3279c-1.2035 0.6525-2.7211 0.4527-3.7305-0.6013-1.0101-1.0541-1.2016-2.6376-0.57693-3.8928z" fill="#19194B"/>
    <path d="m5.1569 8.4466c-0.14264 0-0.28639-0.02887-0.42277-0.08777-0.36968-0.16014-0.62769-0.51584-0.67487-0.93082-0.09362-0.8238-0.76407-1.4447-1.5591-1.4447-0.7954 0-1.4655 0.62093-1.5591 1.4444-0.047178 0.41498-0.30518 0.77106-0.67487 0.9312-0.37006 0.15976-0.79319 0.09855-1.1076-0.16052-0.62327-0.51315-1.5175-0.45695-2.0799 0.13011-0.56209 0.58744-0.61553 1.5217-0.12421 2.1727 0.24768 0.3284 0.30629 0.7707 0.15296 1.1568-0.15296 0.3861-0.4939 0.6556-0.89123 0.7049-0.78839 0.0973-1.3829 0.7972-1.3829 1.6279 0 0.8308 0.59452 1.5306 1.3826 1.628 0.3977 0.0493 0.73864 0.3187 0.8916 0.7049 0.15333 0.3861 0.09472 0.8284-0.15296 1.1567-0.49132 0.651-0.43788 1.5853 0.12421 2.1723 0.56208 0.5875 1.4563 0.6433 2.0799 0.1302 0.3144-0.2587 0.73753-0.3199 1.1076-0.1602 0.36969 0.1602 0.62769 0.5162 0.67487 0.9312 0.093622 0.8234 0.7637 1.4444 1.5591 1.4444 0.79503 0 1.4655-0.6213 1.5591-1.4448 0.04718-0.4149 0.30519-0.7706 0.67487-0.9308 0.37006-0.1597 0.79356-0.0981 1.1076 0.1602 0.62327 0.5135 1.5174 0.4573 2.0795-0.1302 0.56246-0.587 0.6159-1.5213 0.12421-2.1723-0.24768-0.3283-0.30592-0.7706-0.15296-1.1567 0.15333-0.3862 0.49427-0.6556 0.8916-0.7049 0.78803-0.0974 1.3826-0.7972 1.3826-1.628 0-0.8307-0.59453-1.5306-1.3826-1.6279-0.3977-0.0493-0.73864-0.3188-0.8916-0.7049s-0.09472-0.8284 0.15297-1.1568c0.49168-0.65133 0.43824-1.5852-0.12422-2.1727-0.56245-0.58705-1.4563-0.64326-2.0795-0.13011-0.1983 0.1636-0.44045 0.24829-0.68482 0.24829z" clip-rule="evenodd" fill="#fff" fill-rule="evenodd"/>
  </g>
  <rect x="17" y="6" width="17" height="2" rx="1" fill="#19194B"/>
  <rect x="17" y="10" width="7" height="2" rx="1" fill="#19194B"/>
  <rect x="17" y="14" width="7" height="2" rx="1" fill="#19194B"/>
  <rect x="25" y="10" width="7" height="2" rx="1" fill="#19194B"/>
</svg>

<svg class="icon"
     viewBox="0 0 40 28"
     fill="none"
     xmlns="http://www.w3.org/2000/svg"
>
  <rect x="1"
        y="1"
        width="38"
        height="26"
        rx="3"
        fill="#00A0DF"
        stroke="#19194B"
        stroke-width="2"
  />
  <circle cx="33" cy="20" r="3" fill="#FAC34B"/>
  <circle cx="29" cy="20" r="3" fill="#EB4B68"/>
  <mask id="mask0"
        mask-type="alpha"
        maskUnits="userSpaceOnUse"
        x="2"
        y="2"
        width="15"
        height="24"
  >
    <rect x="17"
          y="26"
          width="15"
          height="24"
          transform="rotate(-180 17 26)"
          fill="#C4C4C4"
    />
  </mask>
  <g mask="url(#mask0)">
    <path d="M-4.8531 17.178C-6.14607 16.7509 -7.08336 15.4902 -7.08336 14C-7.08336 12.5098 -6.14607 11.2484 -4.8531 10.822C-5.47773 9.56608 -5.2863 7.98258 -4.27617 6.92853C-3.2667 5.87448 -1.74919 5.67473 -0.545644 6.32721C-0.136955 4.97802 1.07188 4 2.49997 4C3.92807 4 5.13625 4.97802 5.5456 6.32721C6.74915 5.67473 8.26667 5.87448 9.27614 6.92853C10.2863 7.98258 10.4777 9.56608 9.85308 10.822C11.1454 11.2484 12.0833 12.5098 12.0833 14C12.0833 15.4902 11.1454 16.7509 9.85308 17.178C10.4777 18.4332 10.2863 20.0167 9.27614 21.0708C8.26667 22.1248 6.74915 22.3246 5.5456 21.6721C5.13625 23.022 3.92806 24 2.49997 24C1.07188 24 -0.136956 23.022 -0.545646 21.6721C-1.74919 22.3246 -3.2667 22.1248 -4.27617 21.0708C-5.2863 20.0167 -5.47773 18.4332 -4.8531 17.178Z"
          fill="#19194B"
    />
    <path fill-rule="evenodd"
          clip-rule="evenodd"
          d="M5.15694 8.44661C5.0143 8.44661 4.87055 8.41774 4.73417 8.35884C4.36449 8.1987 4.10648 7.843 4.0593 7.42802C3.96568 6.60422 3.29523 5.98329 2.50021 5.98329C1.70481 5.98329 1.03473 6.60422 0.941109 7.42764C0.893931 7.84262 0.635924 8.1987 0.266237 8.35884C-0.103818 8.5186 -0.526949 8.45739 -0.841348 8.19832C-1.46462 7.68517 -2.3588 7.74137 -2.92125 8.32843C-3.48334 8.91587 -3.53678 9.85016 -3.04546 10.5011C-2.79778 10.8295 -2.73917 11.2718 -2.8925 11.6579C-3.04546 12.044 -3.3864 12.3135 -3.78373 12.3628C-4.57212 12.4601 -5.16665 13.16 -5.16665 13.9907C-5.16665 14.8215 -4.57213 15.5213 -3.7841 15.6187C-3.3864 15.668 -3.04546 15.9374 -2.8925 16.3236C-2.73917 16.7097 -2.79778 17.152 -3.04546 17.4803C-3.53678 18.1313 -3.48334 19.0656 -2.92125 19.6526C-2.35917 20.2401 -1.46499 20.2959 -0.841349 19.7828C-0.52695 19.5241 -0.103819 19.4629 0.266237 19.6226C0.635923 19.7828 0.89393 20.1388 0.941108 20.5538C1.03473 21.3772 1.70481 21.9982 2.5002 21.9982C3.29523 21.9982 3.96568 21.3769 4.0593 20.5534C4.10648 20.1385 4.36449 19.7828 4.73417 19.6226C5.10423 19.4629 5.52773 19.5245 5.84176 19.7828C6.46503 20.2963 7.35921 20.2401 7.92129 19.6526C8.48375 19.0656 8.53719 18.1313 8.0455 17.4803C7.79782 17.152 7.73958 16.7097 7.89254 16.3236C8.04587 15.9374 8.38681 15.668 8.78414 15.6187C9.57217 15.5213 10.1667 14.8215 10.1667 13.9907C10.1667 13.16 9.57217 12.4601 8.78414 12.3628C8.38644 12.3135 8.0455 12.044 7.89254 11.6579C7.73958 11.2718 7.79782 10.8295 8.04551 10.5011C8.53719 9.84977 8.48375 8.91587 7.92129 8.32843C7.35884 7.74138 6.46503 7.68517 5.84176 8.19832C5.64346 8.36192 5.40131 8.44661 5.15694 8.44661Z"
          fill="white"
    />
  </g>
  <rect x="17" y="6" width="17" height="2" rx="1" fill="#19194B"/>
  <rect x="17" y="10" width="7" height="2" rx="1" fill="#19194B"/>
  <rect x="17" y="14" width="7" height="2" rx="1" fill="#19194B"/>
  <rect x="25" y="10" width="7" height="2" rx="1" fill="#19194B"/>
</svg>
